X:434
%%etbk:tnset id:131,pos:1,rep:3x,ant:
%%etbk:wsite http://www.thesession.org/tunes/display/11933
%%etbk:pldat 2016-05-05T11:17,2016-05-04T14:27,2016-05-03T16:17,2016-05-02T18:01,2016-04-25T17:58,2016-04-09T14:19,2016-04-08T18:08,2016-04-07T15:20,2016-04-05T15:31,2016-04-04T19:06,2016-04-03T13:42,2016-04-02T13:39,2016-03-31T15:09,2016-03-30T15:51,2016-03-28T14:44,2016-03-24T16:14,2016-02-04T19:27,2016-02-03T16:44,2016-02-02T17:44,2016-01-30T13:48,2016-01-26T16:53,2016-01-24T15:16,2016-01-20T17:16,2016-01-17T13:40,2016-01-03T12:58,2015-12-11T17:45,2015-12-10T18:30,2015-12-10T17:47,2015-12-09T15:34,2015-12-08T14:59,2015-12-07T18:10,2015-12-06T13:25,2015-12-03T18:21,2015-12-02T16:01,2015-12-01T15:30,2015-11-30T18:01,2015-11-29T14:12,2015-11-04T17:32,2015-11-03T16:46,2015-11-01T15:02,2015-10-27T15:33,2015-10-25T13:42,2015-10-21T18:17,2015-10-08T18:35,2015-10-06T17:41,2015-10-01T18:27,2015-09-28T19:00,2015-09-10T17:06,2015-09-08T19:17,2015-09-07T19:04,2015-08-18T17:30,2015-07-25T14:05,2015-05-26T18:07,2015-05-07T17:57,2015-04-23T18:40,2015-04-22T16:14,2015-04-15T15:09,2015-02-22T13:05,2015-02-19T20:02,2015-02-17T17:43,2015-02-13T19:10,2015-02-11T16:31,2015-02-03T16:14,2015-01-28T16:04,2015-01-25T16:05,2015-01-13T15:51,2014-12-15T15:19,2014-12-10T15:29,2014-11-30T14:23,2014-10-30T18:10,2014-10-29T16:40,2014-10-28T16:10,2014-10-27T17:58,2014-10-25T14:08,2014-10-24T18:00,2014-10-19T15:33,2014-10-16T18:06,2014-10-14T18:28,2014-10-11T14:34,2014-10-05T15:08,2014-10-03T15:07,2014-09-15T17:55,2014-09-10T18:06,2014-08-31T14:48,2014-07-30T19:44,2014-07-25T18:30,2014-06-17T19:12,2014-06-07T15:58,2014-05-12T19:05,2014-05-06T18:01,2014-04-24T18:48,2014-04-23T15:30,2014-04-22T18:05,2014-04-21T16:22,2014-04-18T12:15,2014-04-14T10:50,2014-04-12T11:32,2014-04-09T15:26,2014-04-06T11:12,2014-04-03T19:19,2014-03-23T14:58,2014-03-06T19:05,2014-02-26T17:13,2014-01-30T18:09,2014-01-29T16:17,2014-01-22T15:15,2014-01-21T16:18,2014-01-19T12:42,2014-01-19T12:39,2014-01-18T14:57,2014-01-15T15:28,2014-01-13T18:20,2014-01-09T18:08,2014-01-07T15:17,2013-12-28T14:05,2013-12-27T17:38,2013-12-26T14:35,2013-12-17T16:32,2013-12-15T16:03,2013-10-30T16:50,2013-10-28T19:15,2013-10-27T15:09,2013-10-16T15:33,2013-10-14T18:55,2013-10-13T14:03,2013-10-07T18:43,2013-09-12T17:30,2013-05-23T18:05,2013-05-21T17:20,2013-05-10T16:09,2013-05-09T15:38,2013-05-01T17:49
T: Hug The Bundle
Z: Piano Box Version by Martin Fleischmann
H: Created 2013-02-19 /  Last Modified 2013-02-19
M: 4/4
L: 1/8
R: strathspey
K: Edor
"em"!1!E3!2!B BA !2!(3Bc!4!d | "D"!1!D2D!5!A AG !3!(3FE!1!D | "em"!1!E3B !2!BA !2!(3Bc!4!d | "bm"!2!egfg !2!e!1!d!2!B!4!d|
"em"!1!EFGA !5!B!1!A !2!(3Bc!4!d | "D"!1!D3!5!A AG !3!(3FE!1!D | "em"!1!E2E!2!B BA !2!(3Bc!4!d | "bm"!2!egfd "em"!2!!1!e4||
"em"!1!efga !5!b!1!ee!4!g | "D"!3!f{g}f!1!df f{g}fd!3!f | "em"!1!efga !5!bee!4!g | "D"!3!f{g}f!1!df "em"!2!!1!e4 |
"em"!1!efga !5!b!1!ee!4!g | "D"!3!f{g}fdf !5!a!3!f!1!d2 | !5!af!4!ge !3!fed!3!f | !2!e!1!d !2!(3Bc!4!d !5!ed!2!B!4!d ||


